digitransit-component/packages/digitransit-component-icon/src/assets/search-ferry-digitransit.svg

<?xml version="1.0" encoding="UTF-8"?>
<svg xmlns="http://www.w3.org/2000/svg" xmlns:xlink="http://www.w3.org/1999/xlink" viewBox="0 0 1024 1024" version="1.1">
<g id="surface1">
<path d="M 921.621094 1024 L 102.414062 1024 C 45.84375 1024 0 978.160156 0 921.621094 L 0 102.414062 C 0 45.84375 45.84375 0 102.414062 0 L 921.621094 0 C 978.191406 0 1024.035156 45.84375 1024.035156 102.414062 L 1024.035156 921.621094 C 1024 978.160156 978.160156 1024 921.621094 1024 Z M 921.621094 1024 "/>
<path style=" stroke:none;fill-rule:evenodd;fill:rgb(100%,100%,100%);fill-opacity:1;" d="M 416 138.667969 C 416 132.777344 420.777344 128 426.667969 128 L 597.332031 128 C 603.226562 128 608 132.777344 608 138.667969 L 608 213.332031 L 725.332031 213.332031 C 748.898438 213.332031 768 232.4375 768 256 L 768 502.503906 C 768 509.152344 763.191406 513.109375 757.320312 511.28125 L 521.609375 437.765625 C 515.738281 435.941406 506.132812 435.964844 500.269531 437.8125 L 266.667969 511.542969 C 260.808594 513.394531 256 509.453125 256 502.785156 L 256 256 C 256 232.4375 275.101562 213.332031 298.667969 213.332031 L 416 213.332031 Z M 309.332031 298.667969 C 303.441406 298.667969 298.667969 303.441406 298.667969 309.332031 L 298.667969 352 C 298.667969 357.890625 303.441406 362.667969 309.332031 362.667969 L 394.667969 362.667969 C 400.558594 362.667969 405.332031 357.890625 405.332031 352 L 405.332031 309.332031 C 405.332031 303.441406 400.558594 298.667969 394.667969 298.667969 Z M 469.332031 298.667969 C 463.441406 298.667969 458.667969 303.441406 458.667969 309.332031 L 458.667969 352 C 458.667969 357.890625 463.441406 362.667969 469.332031 362.667969 L 554.667969 362.667969 C 560.558594 362.667969 565.332031 357.890625 565.332031 352 L 565.332031 309.332031 C 565.332031 303.441406 560.558594 298.667969 554.667969 298.667969 Z M 618.667969 309.332031 C 618.667969 303.441406 623.441406 298.667969 629.332031 298.667969 L 714.667969 298.667969 C 720.558594 298.667969 725.332031 303.441406 725.332031 309.332031 L 725.332031 352 C 725.332031 357.890625 720.558594 362.667969 714.667969 362.667969 L 629.332031 362.667969 C 623.441406 362.667969 618.667969 357.890625 618.667969 352 Z M 618.667969 309.332031 "/>
<path style=" stroke:none;fill-rule:evenodd;fill:rgb(100%,100%,100%);fill-opacity:1;" d="M 521.390625 490.210938 L 887.09375 580.085938 C 893.535156 581.671875 897.339844 588.191406 895.554688 594.5625 L 858.179688 728.523438 C 827.976562 733.796875 808.074219 744.742188 789.910156 754.738281 C 766.859375 767.417969 746.957031 778.328125 704.765625 778.328125 C 662.617188 778.328125 642.710938 767.40625 619.695312 754.78125 L 619.617188 754.738281 L 619.480469 754.664062 C 594.445312 740.917969 566.054688 725.332031 511.964844 725.332031 C 457.773438 725.332031 429.378906 740.941406 404.3125 754.738281 C 381.261719 767.417969 361.394531 778.328125 319.199219 778.328125 C 277.023438 778.328125 257.117188 767.390625 234.117188 754.753906 L 234.089844 754.738281 L 233.953125 754.664062 C 215.828125 744.710938 195.941406 733.792969 165.816406 728.527344 L 128.4375 594.5625 C 126.65625 588.191406 130.46875 581.652344 136.902344 580.050781 L 497.996094 490.246094 C 504.421875 488.644531 514.957031 488.632812 521.390625 490.210938 Z M 521.390625 490.210938 "/>
<path style=" stroke:none;fill-rule:nonzero;fill:rgb(100%,100%,100%);fill-opacity:1;" d="M 789.910156 808.074219 C 766.859375 820.753906 746.957031 831.664062 704.765625 831.664062 C 662.570312 831.664062 642.664062 820.714844 619.617188 808.074219 C 594.546875 794.308594 566.152344 778.667969 511.964844 778.667969 C 457.773438 778.667969 429.378906 794.273438 404.3125 808.074219 C 381.261719 820.753906 361.394531 831.664062 319.199219 831.664062 C 277.007812 831.664062 257.101562 820.714844 234.089844 808.074219 C 209.019531 794.308594 180.625 778.667969 126.4375 778.667969 L 126.4375 825.414062 C 168.632812 825.414062 188.535156 836.355469 211.585938 849.003906 C 236.65625 862.765625 265.050781 878.410156 319.238281 878.410156 C 373.425781 878.410156 401.820312 862.800781 426.886719 849.003906 C 449.9375 836.320312 469.808594 825.414062 512 825.414062 C 554.191406 825.414062 574.097656 836.355469 597.144531 849.003906 C 622.214844 862.765625 650.609375 878.410156 704.796875 878.410156 C 758.988281 878.410156 787.378906 862.800781 812.449219 849.003906 C 835.5 836.320312 855.402344 825.414062 897.601562 825.414062 L 897.601562 778.667969 C 843.375 778.667969 814.980469 794.273438 789.910156 808.074219 Z M 789.910156 808.074219 "/>
</g>
</svg>

<svg xmlns="http://www.w3.org/2000/svg" viewBox="0 0 1024 1024">
 <path d="M921.621 1024H102.414C45.844 1024 0 978.16 0 921.621V102.414C0 45.844 45.844 0 102.414 0h819.207c56.57 0 102.414 45.844 102.414 102.414v819.207C1024 978.161 978.16 1024 921.621 1024m0 0"/>
 <path d="M416 138.668c0-5.89 4.777-10.668 10.668-10.668h170.664c5.895 0 10.668 4.777 10.668 10.668v74.664h117.332C748.898 213.332 768 232.438 768 256v246.504c0 6.648-4.809 10.605-10.68 8.777l-235.71-73.515c-5.872-1.825-15.477-1.801-21.34.046l-233.602 73.731c-5.86 1.852-10.668-2.09-10.668-8.758V256c0-23.562 19.102-42.668 42.668-42.668H416Zm-106.668 160c-5.89 0-10.664 4.773-10.664 10.664V352c0 5.89 4.773 10.668 10.664 10.668h85.336c5.89 0 10.664-4.777 10.664-10.668v-42.668c0-5.89-4.773-10.664-10.664-10.664Zm160 0c-5.89 0-10.664 4.773-10.664 10.664V352c0 5.89 4.773 10.668 10.664 10.668h85.336c5.89 0 10.664-4.777 10.664-10.668v-42.668c0-5.89-4.773-10.664-10.664-10.664Zm149.336 10.664c0-5.89 4.773-10.664 10.664-10.664h85.336c5.89 0 10.664 4.773 10.664 10.664V352c0 5.89-4.773 10.668-10.664 10.668h-85.336c-5.89 0-10.664-4.777-10.664-10.668Zm0 0" style="stroke:none;fill-rule:evenodd;fill:#fff;fill-opacity:1"/>
 <path d="m521.39 490.21 365.704 89.876a11.63 11.63 0 0 1 8.46 14.476L858.18 728.524c-30.203 5.274-50.106 16.22-68.27 26.215-23.05 12.68-42.953 23.59-85.144 23.59-42.149 0-62.055-10.922-85.07-23.547l-.079-.043-.137-.074c-25.035-13.746-53.425-29.332-107.515-29.332-54.192 0-82.586 15.61-107.652 29.406-23.051 12.68-42.918 23.59-85.114 23.59-42.176 0-62.082-10.937-85.082-23.574l-.027-.016-.137-.074c-18.125-9.953-38.012-20.871-68.137-26.137l-37.378-133.965c-1.782-6.37 2.03-12.91 8.464-14.511l361.094-89.805c6.426-1.601 16.961-1.613 23.395-.035m0 0" style="stroke:none;fill-rule:evenodd;fill:#fff;fill-opacity:1"/>
 <path d="M789.91 808.074c-23.05 12.68-42.953 23.59-85.144 23.59-42.196 0-62.102-10.95-85.149-23.59-25.07-13.765-53.465-29.406-107.652-29.406-54.192 0-82.586 15.605-107.652 29.406-23.051 12.68-42.918 23.59-85.114 23.59-42.191 0-62.097-10.95-85.11-23.59-25.07-13.765-53.464-29.406-107.651-29.406v46.746c42.195 0 62.097 10.941 85.148 23.59 25.07 13.762 53.465 29.406 107.652 29.406 54.188 0 82.582-15.61 107.649-29.406 23.05-12.684 42.922-23.59 85.113-23.59s62.098 10.941 85.145 23.59c25.07 13.762 53.464 29.406 107.652 29.406 54.191 0 82.582-15.61 107.652-29.406 23.051-12.684 42.953-23.59 85.153-23.59v-46.746c-54.227 0-82.622 15.605-107.692 29.406m0 0" style="stroke:none;fill-rule:nonzero;fill:#fff;fill-opacity:1"/>
</svg>
